packages/kaspersky-hexa-ui-icons/src/iconsSVGs/64x42/FlagUg.svg

<svg xmlns="http://www.w3.org/2000/svg" width="64" height="42" fill="none" viewBox="0 0 64 42"><g clip-path="url(#a)"><rect width="64" height="42" fill="#fff" rx="5"/><path fill="#262626" fill-rule="evenodd" d="M0 5.6h64V0H0zM0 28h64v-5.6H0z" clip-rule="evenodd"/><path fill="#ed1623" fill-rule="evenodd" d="M0 22.4003h64v-8.4001H0z" clip-rule="evenodd"/><path fill="#fee044" fill-rule="evenodd" d="M0 14.0001h64v-8.4H0z" clip-rule="evenodd"/><path fill="#ed1623" fill-rule="evenodd" d="M0 41.9999h64v-5.6H0z" clip-rule="evenodd"/><path fill="#fee044" fill-rule="evenodd" d="M0 36.4h64V28H0z" clip-rule="evenodd"/><circle cx="32" cy="21" r="10" fill="#fff"/><path fill="#262626" fill-rule="evenodd" d="M29.6949 15.895a.7.7 0 0 1 0-.99l.8649-.8649a.8.8 0 0 0 .0735-.0848c.0736-.097.2609-.3336.48-.5328.3711-.3375 1.4283-.3729 1.7945-.0301.0995.093.1903.1967.2662.2916.151.1889.1602.4475.052.6639l-1.1522 2.3043a.7.7 0 0 0-.0739.3131v.8021a.7.7 0 0 0 .387.6261l2.3115 1.1557a.7.7 0 0 1 .1819.1312l2.3629 2.3629a.7.7 0 0 1 .1311.808l-.74 1.4801c-.2137.4273-.7832.5198-1.1211.1819l-.2183-.2183a.7.7 0 0 0-.9899 0l-.7.7a.7.7 0 0 0-.2051.495v.8201a.7.7 0 0 0 .2051.495c.441.441.1286 1.195-.495 1.195h-.8201c-.6236 0-.936-.754-.495-1.195a.7.7 0 0 0 .205-.495v-.41a.7.7 0 0 0-.7-.7h-.41a.7.7 0 0 0-.495.205l-.7.7a.7.7 0 0 1-.9899 0l-.4101-.4101a.7.7 0 0 1 0-.9899l.7-.7a.7.7 0 0 1 .495-.2051h.8201c.6236 0 .9359-.754.495-1.1949l-2.5101-2.5101a.7.7 0 0 1 0-.9899l1.8101-1.8101a.7.7 0 0 0 0-.99z" clip-rule="evenodd"/></g><defs><clipPath id="a"><rect width="64" height="42" fill="#fff" rx="5"/></clipPath></defs></svg>

<svg width="64" height="42" viewBox="0 0 64 42" fill="none" xmlns="http://www.w3.org/2000/svg">
<g clip-path="url(#clip0_37941_2369)">
<rect width="64" height="42" rx="5" fill="white"/>
<path fill-rule="evenodd" clip-rule="evenodd" d="M0 5.60002H64V0H0V5.60002Z" fill="#262626"/>
<path fill-rule="evenodd" clip-rule="evenodd" d="M0 28.0002H64V22.4001H0V28.0002Z" fill="#262626"/>
<path fill-rule="evenodd" clip-rule="evenodd" d="M0 22.4003H64V14.0002H0V22.4003Z" fill="#ED1623"/>
<path fill-rule="evenodd" clip-rule="evenodd" d="M0 14.0001H64V5.6001H0V14.0001Z" fill="#FEE044"/>
<path fill-rule="evenodd" clip-rule="evenodd" d="M0 41.9999H64V36.3999H0V41.9999Z" fill="#ED1623"/>
<path fill-rule="evenodd" clip-rule="evenodd" d="M0 36.4H64V28H0V36.4Z" fill="#FEE044"/>
<circle cx="32.0001" cy="21" r="9.80004" fill="white"/>
<path fill-rule="evenodd" clip-rule="evenodd" d="M29.6949 15.895C29.4215 15.6216 29.4215 15.1784 29.6949 14.905L30.5598 14.0401C30.5865 14.0134 30.6104 13.9853 30.6333 13.9553C30.7069 13.8583 30.8942 13.6217 31.1133 13.4225C31.4844 13.085 32.5416 13.0496 32.9078 13.3924C33.0073 13.4854 33.0981 13.5891 33.174 13.684C33.325 13.8729 33.3342 14.1315 33.226 14.3479L32.0738 16.6522C32.0252 16.7494 31.9999 16.8566 31.9999 16.9653V17.7674C31.9999 18.0325 32.1497 18.2749 32.3869 18.3935L34.6984 19.5492C34.7656 19.5829 34.8271 19.6272 34.8803 19.6804L37.2432 22.0433C37.4563 22.2563 37.5091 22.5818 37.3743 22.8513L36.6343 24.3314C36.4206 24.7587 35.8511 24.8512 35.5132 24.5133L35.2949 24.295C35.0216 24.0217 34.5783 24.0217 34.305 24.295L33.605 24.995C33.4737 25.1263 33.3999 25.3044 33.3999 25.49V26.3101C33.3999 26.4958 33.4737 26.6738 33.605 26.8051C34.046 27.2461 33.7336 28.0001 33.11 28.0001H32.2899C31.6663 28.0001 31.3539 27.2461 31.7949 26.8051C31.9262 26.6738 31.9999 26.4958 31.9999 26.3101V25.9001C31.9999 25.5135 31.6865 25.2001 31.2999 25.2001H30.8899C30.7042 25.2001 30.5262 25.2738 30.3949 25.4051L29.6949 26.1051C29.4215 26.3785 28.9783 26.3785 28.705 26.1051L28.2949 25.695C28.0215 25.4217 28.0215 24.9784 28.2949 24.7051L28.9949 24.0051C29.1262 23.8738 29.3042 23.8 29.4899 23.8H30.31C30.9336 23.8 31.2459 23.046 30.805 22.6051L28.2949 20.095C28.0215 19.8216 28.0215 19.3784 28.2949 19.1051L30.105 17.295C30.3783 17.0216 30.3783 16.5784 30.105 16.305L29.6949 15.895Z" fill="#262626"/>
</g>
<defs>
<clipPath id="clip0_37941_2369">
<rect width="64" height="42" rx="5" fill="white"/>
</clipPath>
</defs>
</svg>
